svgs/thin/user-nurse-hair-long.svg

<svg xmlns="http://www.w3.org/2000/svg" viewBox="0 0 448 512"><!--! Font Awesome Pro 6.1.1 by @fontawesome - https://fontawesome.com License - https://fontawesome.com/license (Commercial License) Copyright 2022 Fonticons, Inc. --><path d="M232 72H256C260.4 72 264 75.58 264 80C264 84.42 260.4 88 256 88H232V112C232 116.4 228.4 120 224 120C219.6 120 216 116.4 216 112V88H192C187.6 88 184 84.42 184 80C184 75.58 187.6 72 192 72H216V48C216 43.58 219.6 40 224 40C228.4 40 232 43.58 232 48V72zM96 76.93C96 64.22 103.5 52.71 115.2 47.61L211.2 5.613C219.4 2.035 228.6 2.035 236.8 5.613L332.8 47.61C344.5 52.71 352 64.22 352 76.93V168C352 205.8 369.8 241.3 400 264L404.3 267.2C411.7 272.7 416 281.4 416 290.7C416 306.9 402.9 320 386.7 320H328C323.6 320 320 316.4 320 312C320 307.6 323.6 304 328 304H386.7C394 304 400 298 400 290.7C400 286.5 398 282.5 394.7 280L390.4 276.8C369.8 261.4 354.3 240.6 345.2 217.2C328.1 267.7 280.3 304 224 304C167.7 304 119.9 267.7 102.8 217.2C93.7 240.6 78.2 261.4 57.6 276.8L53.33 280C49.98 282.5 48 286.5 48 290.7C48 298 53.97 304 61.33 304H120C124.4 304 128 307.6 128 312C128 316.4 124.4 320 120 320H61.33C45.13 320 32 306.9 32 290.7C32 281.4 36.35 272.7 43.73 267.2L48 264C78.22 241.3 96 205.8 96 168V76.93zM112 76.93V144H336V76.93C336 70.57 332.2 64.82 326.4 62.27L230.4 20.27C226.3 18.48 221.7 18.48 217.6 20.27L121.6 62.27C115.8 64.82 112 70.57 112 76.93zM162.3 208H116.6C130.4 254.3 173.3 288 224 288C285.9 288 336 237.9 336 176V160H244.8C228 189.6 196.6 208 162.3 208V208zM112 160V176C112 181.4 112.4 186.8 113.1 192H162.3C187.6 192 211.1 179.9 225.8 160L112 160zM144 349.9L224 429.9L304 349.9H313.6C387.8 349.9 448 410.1 448 484.3C448 498.5 436.5 509.9 422.4 509.9H25.6C11.46 509.9 0 498.5 0 484.3C0 410.1 60.17 349.9 134.4 349.9H144zM212.7 441.3L137.4 365.9H134.4C69.01 365.9 16 418.9 16 484.3C16 489.6 20.3 493.9 25.6 493.9H422.4C427.7 493.9 432 489.6 432 484.3C432 418.9 378.1 365.9 313.6 365.9H310.6L235.3 441.3C229.1 447.5 218.9 447.5 212.7 441.3H212.7z"/></svg>

<svg xmlns="http://www.w3.org/2000/svg" viewBox="0 0 448 512"><!--! Font Awesome Pro 6.4.2 by @fontawesome - https://fontawesome.com License - https://fontawesome.com/license (Commercial License) Copyright 2023 Fonticons, Inc. --><path d="M112 76.9V144H336V76.9c0-6.4-3.8-12.1-9.6-14.7l-96-42c-4.1-1.8-8.7-1.8-12.8 0l-96 42c-5.8 2.5-9.6 8.3-9.6 14.7zM96 144V76.9c0-12.7 7.5-24.2 19.2-29.3l96-42c8.2-3.6 17.5-3.6 25.7 0l96 42C344.5 52.7 352 64.2 352 76.9V144v8 8 0 8c0 37.8 17.8 73.3 48 96l4.3 3.2c7.4 5.5 11.7 14.2 11.7 23.5c0 16.2-13.1 29.3-29.3 29.3H328c-4.4 0-8-3.6-8-8s3.6-8 8-8h58.7c7.4 0 13.3-6 13.3-13.3c0-4.2-2-8.1-5.3-10.7l-4.3-3.2c-20.6-15.4-36.1-36.2-45.2-59.6C328.1 267.7 280.3 304 224 304s-104.1-36.3-121.2-86.8c-9.1 23.4-24.6 44.1-45.2 59.6L53.3 280c-3.4 2.5-5.3 6.5-5.3 10.7C48 298 54 304 61.3 304H120c4.4 0 8 3.6 8 8s-3.6 8-8 8H61.3C45.1 320 32 306.9 32 290.7c0-9.2 4.3-17.9 11.7-23.5L48 264c30.2-22.7 48-58.2 48-96v-8 0-8-8zm148.8 16c-16.8 29.6-48.2 48-82.5 48H116.6c13.8 46.3 56.6 80 107.4 80c61.9 0 112-50.1 112-112v-8-8 0H244.8zM112 160v0 8 8c0 5.4 .4 10.8 1.1 16h49.2c25.3 0 48.7-12.1 63.4-32H112zM232 48V72h24c4.4 0 8 3.6 8 8s-3.6 8-8 8H232v24c0 4.4-3.6 8-8 8s-8-3.6-8-8V88H192c-4.4 0-8-3.6-8-8s3.6-8 8-8h24V48c0-4.4 3.6-8 8-8s8 3.6 8 8zM137.4 365.9h-3C69 365.9 16 418.9 16 484.3c0 5.3 4.3 9.6 9.6 9.6H422.4c5.3 0 9.6-4.3 9.6-9.6c0-65.4-53-118.4-118.4-118.4h-3l-64 64c-12.5 12.5-32.8 12.5-45.3 0l-64-64zm0-16c4.2 0 8.3 1.7 11.3 4.7l64 64c6.2 6.2 16.4 6.2 22.6 0l64-64c3-3 7.1-4.7 11.3-4.7h3c74.2 0 134.4 60.2 134.4 134.4c0 14.1-11.5 25.6-25.6 25.6H25.6C11.5 509.9 0 498.5 0 484.3c0-74.2 60.2-134.4 134.4-134.4h3z"/></svg>
